X:1
T:Counting the Goats (Cyfri'r Giefr)
M:4/4
L:1/8
K:F
 c2 A3/2 A/2 c4| B2 G3/2 G/2 G B3| A3/2 G/2 FE FG A3/2 A/2| GF EF F2 AA|\
 c2 c2 c2 A3/2 A/2| Bd Bd Bd A3/2 A/2|
M:3/4
 Ac A3/2 A/2 Ac|
M:4/4
 BA GF E c3| A2 G2 F2 A3/2 A/2| c2 c2 c2 A3/2 A/2| Bd Bd Bd A3/2 A/2|\
